X: 1117
T: Amparo
R: reel
M: 4/4
K: Bminor
B2 f e2 d2 (c|c)dBA B2 B2|B2 f e2 d2 (c|c)dBA B2 B2|
B2 fa2 f2(e|e)fdc dcBA|d2cB2 A2 (c|c)dBA B2B2:|
|:EG Bf2 a2(e|e)fdc dcBA|EG Bf2 a2(e|e)fdc d2 d2|
EG Bf2 a2(e|e)fdc dcBA|d2cB2 A2 (c|c)dBA B2B2:|

